frontend/public/svg/arrows/arrow-single-down.svg

<svg width="91" height="60" viewBox="0 0 91 60" fill="none" xmlns="http://www.w3.org/2000/svg">
<path d="M45.4294 49.6574C49.7395 44.2098 53.604 39.3621 57.4357 34.4856C63.7103 26.4986 69.8405 18.3922 76.2864 10.5477C78.9741 7.27712 82.2998 4.52502 85.3833 1.58791C86.7071 0.326427 88.4109 -0.774937 90.0065 0.720856C91.7786 2.38073 90.6629 4.19232 89.2846 5.57785C74.4514 20.4826 64.2741 38.9336 51.3705 55.3092C47.5677 60.1346 44.3654 60.7634 39.6608 56.6777C38.1526 55.4129 36.7389 54.0397 35.4308 52.569C26.2532 41.8805 16.9876 31.2622 8.06665 20.3624C5.20239 16.8628 3.23017 12.6177 1.00124 8.62848C0.621879 7.94851 0.775416 6.15672 1.08521 6.0504C2.22264 5.65659 3.88641 5.22532 4.71077 5.7727C7.95308 7.92746 11.3608 10.0744 13.9593 12.9097C20.2312 19.7534 26.0667 26.9954 32.111 34.0484C35.6657 38.1971 39.2913 42.2848 42.8663 46.4165C43.6467 47.3202 44.3523 48.2929 45.4294 49.6574Z" fill="black"/>
</svg>

<svg xmlns="http://www.w3.org/2000/svg" width="91" height="60" fill="none" viewBox="0 0 91 60"><path fill="#000" d="M45.43 49.657c4.31-5.447 8.174-10.295 12.006-15.171 6.274-7.987 12.405-16.094 18.85-23.938 2.688-3.27 6.014-6.023 9.097-8.96C86.707.326 88.411-.775 90.007.72c1.772 1.66.656 3.471-.722 4.857C74.45 20.483 64.275 38.934 51.37 55.309c-3.803 4.826-7.006 5.454-11.71 1.369a40.4 40.4 0 0 1-4.23-4.109C26.253 41.88 16.988 31.262 8.067 20.362 5.202 16.862 3.23 12.618 1 8.628c-.38-.68-.226-2.471.084-2.578 1.138-.393 2.801-.825 3.626-.277 3.242 2.154 6.65 4.301 9.248 7.137 6.272 6.843 12.108 14.085 18.152 21.138 3.555 4.15 7.18 8.237 10.755 12.368.78.904 1.486 1.877 2.563 3.241"/></svg>
